X:192
M:C
L:1/8
K:D
|:E|D/D/D F>D B,>DE>F|D/D/D F>E D>B,A,>B,|D/D/D F>D B,>DE>F|
|:A|d/d/d d/d/d e/e/e e/e/e|d/d/d d2 d>FE>D|d/d/d d/d/d e/e/e e/e/e|
d>BA>B d2d:|
|:A|B/c/d B/c/d A>FE>D|B/B/B B/B/B B>AB>c|B/c/d B/c/d A>F E<F|


